static/logos/texts-glyph-color.svg

<svg width="50" height="50" viewBox="0 0 50 50" fill="none" xmlns="http://www.w3.org/2000/svg">
<g clip-path="url(#clip0_1_762)">
<path fill-rule="evenodd" clip-rule="evenodd" d="M23.0189 0.0876987C13.8424 0.794447 6.61081 5.47681 3.03537 13.027C1.57659 16.1073 0.657153 19.7525 0.272194 23.9819C-0.00471642 27.0241 -0.105367 40.8312 0.136747 42.5547C0.737966 46.8332 2.57748 48.3843 7.74642 48.9714C11.6959 49.4199 23.3075 49.7314 26.3237 49.4696C37.6279 48.4886 45.0623 43.3324 48.3026 34.2258C51.7574 24.5166 49.6389 13.4289 43.0749 6.86477C38.2006 1.99063 30.7965 -0.511326 23.0189 0.0876987Z" fill="url(#paint0_linear_1_762)"/>
<mask id="mask0_1_762" style="mask-type:alpha" maskUnits="userSpaceOnUse" x="0" y="0" width="50" height="50">
<path fill-rule="evenodd" clip-rule="evenodd" d="M23.0189 0.088187C13.8424 0.794935 6.61081 5.47729 3.03537 13.0275C1.57659 16.1078 0.657153 19.753 0.272194 23.9824C-0.00471642 27.0246 -0.105367 40.8317 0.136747 42.5552C0.737966 46.8337 2.57748 48.3848 7.74642 48.9719C11.6959 49.4204 23.3075 49.7319 26.3237 49.4701C37.6279 48.4891 45.0623 43.3329 48.3026 34.2263C51.7574 24.5171 49.6389 13.4293 43.0749 6.86526C38.2006 1.99111 30.7965 -0.510837 23.0189 0.088187Z" fill="url(#paint1_linear_1_762)"/>
</mask>
<g mask="url(#mask0_1_762)">
<g opacity="0.7" filter="url(#filter0_f_1_762)">
<path opacity="0.7" d="M32.9284 14.2281C35.8918 14.2281 38.2942 11.8257 38.2942 8.86225C38.2942 5.89877 35.8918 3.4964 32.9284 3.4964C29.9649 3.4964 27.5625 5.89877 27.5625 8.86225C27.5625 11.8257 29.9649 14.2281 32.9284 14.2281Z" fill="#46DEFF"/>
</g>
<g filter="url(#filter1_f_1_762)">
<path d="M6.10403 22.5852C8.57623 24.2194 13.28 21.46 16.6102 16.422C19.9404 11.384 20.636 5.97508 18.1638 4.34092C15.6916 2.70676 10.9878 5.46615 7.65762 10.5042C4.3274 15.5422 3.63184 20.9511 6.10403 22.5852Z" fill="#2C46E1"/>
</g>
<g opacity="0.7" filter="url(#filter2_f_1_762)">
<path opacity="0.7" d="M4.12933 12.8763C1.34838 18.2371 0.530341 22.856 0.418298 22.7979C0.306256 22.7398 0.94264 18.0266 3.72359 12.6658C6.50454 7.30501 9.73066 4.60637 9.84269 4.66449C9.95472 4.72262 6.91029 7.51548 4.12933 12.8763Z" fill="white"/>
</g>
</g>
</g>
<defs>
<filter id="filter0_f_1_762" x="16.6682" y="-7.39791" width="32.523" height="32.5203" filterUnits="userSpaceOnUse" color-interpolation-filters="sRGB">
<feFlood flood-opacity="0" result="BackgroundImageFix"/>
<feBlend mode="normal" in="SourceGraphic" in2="BackgroundImageFix" result="shape"/>
<feGaussianBlur stdDeviation="5.44715" result="effect1_foregroundBlur_1_762"/>
</filter>
<filter id="filter1_f_1_762" x="-6.26931" y="-7.02389" width="36.8042" height="40.9739" filterUnits="userSpaceOnUse" color-interpolation-filters="sRGB">
<feFlood flood-opacity="0" result="BackgroundImageFix"/>
<feBlend mode="normal" in="SourceGraphic" in2="BackgroundImageFix" result="shape"/>
<feGaussianBlur stdDeviation="5.44715" result="effect1_foregroundBlur_1_762"/>
</filter>
<filter id="filter2_f_1_762" x="-1.54497" y="2.71235" width="13.3399" height="22.0373" filterUnits="userSpaceOnUse" color-interpolation-filters="sRGB">
<feFlood flood-opacity="0" result="BackgroundImageFix"/>
<feBlend mode="normal" in="SourceGraphic" in2="BackgroundImageFix" result="shape"/>
<feGaussianBlur stdDeviation="0.97561" result="effect1_foregroundBlur_1_762"/>
</filter>
<linearGradient id="paint0_linear_1_762" x1="24.972" y1="0.000244205" x2="24.972" y2="49.5653" gradientUnits="userSpaceOnUse">
<stop stop-color="#4058E9"/>
<stop offset="0.296875" stop-color="#5B86FF"/>
<stop offset="0.833333" stop-color="#4B6CFF"/>
<stop offset="1" stop-color="#6DA1FF"/>
</linearGradient>
<linearGradient id="paint1_linear_1_762" x1="24.972" y1="0.000732486" x2="24.972" y2="49.5658" gradientUnits="userSpaceOnUse">
<stop stop-color="#4058E9"/>
<stop offset="0.296875" stop-color="#5B86FF"/>
<stop offset="0.833333" stop-color="#4B73FF"/>
<stop offset="1" stop-color="#6DA1FF"/>
</linearGradient>
<clipPath id="clip0_1_762">
<rect width="50" height="49.5935" fill="white"/>
</clipPath>
</defs>
</svg>

<svg xmlns="http://www.w3.org/2000/svg" width="64" height="64" fill="none" viewBox="0 0 50 50"><g clip-path="url(#a)"><path fill="url(#b)" fill-rule="evenodd" d="M23.019.088C13.842.794 6.61 5.477 3.035 13.027 1.577 16.107.657 19.753.272 23.982c-.277 3.042-.377 16.85-.135 18.573.601 4.278 2.44 5.83 7.61 6.416 3.949.449 15.56.76 18.577.499 11.304-.981 18.738-6.138 21.979-15.244 3.454-9.71 1.336-20.797-5.228-27.361C38.2 1.99 30.796-.511 23.019.088Z" clip-rule="evenodd"/><mask id="d" width="50" height="50" x="0" y="0" maskUnits="userSpaceOnUse" style="mask-type:alpha"><path fill="url(#c)" fill-rule="evenodd" d="M23.019.088C13.842.795 6.61 5.478 3.035 13.028 1.577 16.108.657 19.752.272 23.982c-.277 3.043-.377 16.85-.135 18.573.601 4.279 2.44 5.83 7.61 6.417 3.949.448 15.56.76 18.577.498 11.304-.98 18.738-6.137 21.979-15.244 3.454-9.709 1.336-20.797-5.228-27.36C38.2 1.99 30.796-.512 23.019.087Z" clip-rule="evenodd"/></mask><g mask="url(#d)"><g filter="url(#e)" opacity=".7"><path fill="#46DEFF" d="M32.928 14.228a5.366 5.366 0 1 0 0-10.732 5.366 5.366 0 0 0 0 10.732Z" opacity=".7"/></g><g filter="url(#f)"><path fill="#2C46E1" d="M6.104 22.585c2.472 1.634 7.176-1.125 10.506-6.163s4.026-10.447 1.554-12.081c-2.472-1.634-7.176 1.125-10.506 6.163S3.632 20.951 6.104 22.585Z"/></g><g filter="url(#g)" opacity=".7"><path fill="#fff" d="M4.13 12.876c-2.782 5.361-3.6 9.98-3.712 9.922-.112-.058.525-4.771 3.306-10.132 2.78-5.361 6.007-8.06 6.119-8.002.112.059-2.933 2.851-5.714 8.212Z" opacity=".7"/></g></g></g><defs><filter id="e" width="32.523" height="32.52" x="16.668" y="-7.398" color-interpolation-filters="sRGB" filterUnits="userSpaceOnUse"><feFlood flood-opacity="0" result="BackgroundImageFix"/><feBlend in="SourceGraphic" in2="BackgroundImageFix" result="shape"/><feGaussianBlur result="effect1_foregroundBlur_1_762" stdDeviation="5.447"/></filter><filter id="f" width="36.804" height="40.974" x="-6.269" y="-7.024" color-interpolation-filters="sRGB" filterUnits="userSpaceOnUse"><feFlood flood-opacity="0" result="BackgroundImageFix"/><feBlend in="SourceGraphic" in2="BackgroundImageFix" result="shape"/><feGaussianBlur result="effect1_foregroundBlur_1_762" stdDeviation="5.447"/></filter><filter id="g" width="13.34" height="22.037" x="-1.545" y="2.712" color-interpolation-filters="sRGB" filterUnits="userSpaceOnUse"><feFlood flood-opacity="0" result="BackgroundImageFix"/><feBlend in="SourceGraphic" in2="BackgroundImageFix" result="shape"/><feGaussianBlur result="effect1_foregroundBlur_1_762" stdDeviation=".976"/></filter><linearGradient id="b" x1="24.972" x2="24.972" y1="0" y2="49.565" gradientUnits="userSpaceOnUse"><stop stop-color="#4058E9"/><stop offset=".297" stop-color="#5B86FF"/><stop offset=".833" stop-color="#4B6CFF"/><stop offset="1" stop-color="#6DA1FF"/></linearGradient><linearGradient id="c" x1="24.972" x2="24.972" y1=".001" y2="49.566" gradientUnits="userSpaceOnUse"><stop stop-color="#4058E9"/><stop offset=".297" stop-color="#5B86FF"/><stop offset=".833" stop-color="#4B73FF"/><stop offset="1" stop-color="#6DA1FF"/></linearGradient><clipPath id="a"><path fill="#fff" d="M0 0h50v49.593H0z"/></clipPath></defs></svg>
